!!!COM: Bach, Johann Sebastian
!!!CDT: 1685/3//-1750/7/28/
!!!OTL@@DE: Freu' dich sehr, O meine Seele
!!!AGN: 4-Part Chorale
!!!SCT: BH 282
!!!SCT: BWV 25
**harm	**root	**kern	**kern	**kern	**kern
!	!	!bass	!tenor	!alto	!soprno
*	*Iorgan	*Iorgan	*Iorgan	*Iorgan	*Iorgan
*M4/4	*M4/4	*M4/4	*M4/4	*M4/4	*M4/4
*met(c)	*met(c)	*met(c)	*met(c)	*met(c)	*met(c)
*MM60	*MM60	*MM60	*MM60	*MM60	*MM60
*k[b-e-a-d-]	*k[b-e-a-d-]	*k[b-e-a-d-]	*k[b-e-a-d-]	*k[b-e-a-d-]	*k[b-e-a-d-]
*A-:	*A-:	*A-:	*A-:	*A-:	*A-:
*>[A,A,B]	*>[A,A,B]	*>[A,A,B]	*>[A,A,B]	*>[A,A,B]	*>[A,A,B]
*>A	*>A	*>A	*>A	*>A	*>A
=1-	=1-	=1-	=1-	=1-	=1-
I	4CC	4AA-	4c	4e-	4a-
V	4GG	4E-	4G	4e-	4b-
I	4CC	4A-	4A-	4e-	4cc
Vb	4GG	4G	4B-	4e-	4b-
=2	=2	=2	=2	=2	=2
vi	4AA	4F	8c	4f	4a-
.	.	.	8d	.	.
V	4GG	4E-	4e-	4B-	4g
V/V	4DD	4BB-	8e-	4B-	4f
.	.	.	8d	.	.
V;	4GG;	4E-;	4G;	4B-;	4e-;
=3	=3	=3	=3	=3	=3
Ib	4CC	4C	4A-	4e-	4a-
ii	4DD	4BB-	4d-	8f	4b-
.	.	.	.	8g	.
I	4CC	4AA-	8e-	8a-	4cc
.	.	.	8A-	8e-	.
Vb	4GG	4GG	[4B-	4e-	8b-
.	.	.	.	.	16cc
.	.	.	.	.	16dd-
=4	=4	=4	=4	=4	=4
I	4CC	4AA-	8B-]	4e-	4cc
.	.	.	8A-	.	.
V	4GG	4EE-	8A-	4e-	8.b-
.	.	.	8G	.	.
.	.	.	.	.	16a-
I;	2CC;	2AA-;	2c;	2e-;	2a-;
*>B	*>B	*>B	*>B	*>B	*>B
=5:|!	=5:|!	=5:|!	=5:|!	=5:|!	=5:|!
I	4CC	4A-	4A-	4e-	4cc
IVb	4FF	4F	4A-	8f	4dd-
.	.	.	.	16g-	.
.	.	.	.	16a-	.
I7b	4CC	4C	4A-	4g-	4ee-
IV	4FF	4D-	8A-	4f	4dd-
.	.	.	8B-	.	.
=6	=6	=6	=6	=6	=6
V7b/ii	4AA	4AA	8c	4e-	4cc
.	.	.	8F	.	.
ii	4DD	4BB-	8F	8d-	4b-
.	.	.	8G	16f	.
.	.	.	.	16e	.
VI;	2AA;	2FF;	2A;	2f;	2cc;
!!linebreak: 2
=7	=7	=7	=7	=7	=7
Ib	4CC	4C	8A-	4e-	4ee-
.	.	.	8B-	.	.
I	4CC	4AA-	4c	4a-	4ee-
IV	4FF	4D-	8d-	4a-	4ff
.	.	.	8c	.	.
V	4GG	4E-	4B-	4g	4ee-
=8	=8	=8	=8	=8	=8
IVb	4FF	8F	4A-	4f	4dd-
.	.	8G	.	.	.
I	4CC	4A-	4A-	8e-	4cc
.	.	.	.	8d	.
V;	2GG;	2E-;	2G;	2e-;	2b-;
=9	=9	=9	=9	=9	=9
I	4CC	4A-	8A-	4e-	4cc
.	.	.	8B-	.	.
I	4CC	4AA-	4c	8a-	4ee-
.	.	.	.	8g	.
ii	4DD	4BB-	4d-	8f	4dd-
.	.	.	.	8g	.
Ib	4CC	4C	8e-	4a-	8cc
.	.	.	8E-	.	8b-
=10	=10	=10	=10	=10	=10
IV7	4FF	4D-	8F	4f	4a-
.	.	.	8c	.	.
Vb/V	4DD	4D	8B-	4f	4b-
.	.	.	8A-	.	.
iiib	4EE	4E-	2G	4g	2cc
Vb/vi	4EE	4E	.	4c	.
=11	=11	=11	=11	=11	=11
vi;	2AA;	2F;	2F;	2c;	2a-;
iiiob	4EE	4E-	4G-	8e-	4cc
.	.	.	.	8f	.
V7/IV	4CC	4AA-	4C	4g-	4ee-
=12	=12	=12	=12	=12	=12
ii	4DD	4BB-	4D-	8f	4dd-
.	.	.	.	8g	.
Ib	4CC	8C	8E-	4a-	4cc
.	.	8D-	8F	.	.
V	4GG	8E-	4G	4e-	4b-
.	.	8D-	.	.	.
Ib	4CC	8C	4A-	4e-	4a-
.	.	8AA-	.	.	.
=13	=13	=13	=13	=13	=13
V	2GG	2EE-	4A-	2e-	2b-
.	.	.	4G	.	.
I;	2CC;	2AA-;	2c;	2e-;	2a-;
==	==	==	==	==	==
*-	*-	*-	*-	*-	*-
!!chor2scor: -l 2 -s 0.6 -o %b.pmx
!!!YEC: Copyright 1994, David Huron
!!!YEC: Changes/Additions 2001 by Craig Stuart Sapp
!!!YEN: United States of America
!!!SMA: 371 Bach Chorales, edited by Ludwig Erk, C.F. Peters
!!!PDT: 1850, 1865
!!!ONB: Harmony and Root analysis done manually
